X: 1
T: Missa In myne zin / Gloria
N: Derived from Agr1001a-Missa_In_myne_zin-Gloria.krn
C: Alexander Agricola
%%abc-version 2.0
%%abcx-abcm2ps-target-version 5.9.1 (29 Sep 2008)
%%abc-creator hum2abc beta
%%abcx-conversion-date 2019/02/16 20:17:14
%%abc-edited-by Jesse Rodin
%%abc-edited-by Joel Chapman 2013/09/04
%%abcx-initial-encoding-date 2013/09/04/
%%humdrum-veritas 3087466696
%%humdrum-veritas-data 3429910583
%%linebreak <none>
%%barnumbers 0
L: 1/4
M: 3/1
Q: 1/2=120
%%staves [1 2 3 4]
V: 1 clef=treble
V: 2 clef=treble-8
V: 3 clef=treble-8
V: 4 clef=bass
K: F
[V:1] D12- | 
[V:2] D8A4 | 
[V:3] z12 | 
[V:4] D,8F,4 | 
[V:1] D4A8 | 
[V:2] =B4c3=B/c/dc2=B/A/ | 
[V:3] z12 | 
[V:4] G,4F,4F,4 | 
[V:1] =B4c8- | 
[V:2] G2g2f2e3dc=B | 
[V:3] z12 | 
[V:4] E,4z2A,2A,3G, | 
[V:1] c4d4z2d2 | 
[V:2] A2G2A2d2d3c | 
[V:3] z12 | 
[V:4] F,2E,2D,8 | 
[V:1] d3c=B2A2G2A2 | 
[V:2] =B3AG2F2zG2F/E/ | 
[V:3] z2d2d3c=B2A2- | 
[V:4] z8z2A,,2- | 
[V:1] c2=B3AA4^G2 | 
[V:2] F2G2F2A2G3F/E/ | 
[V:3] A2G2A4=B4 | 
[V:4] A,,2E,2D,2F,2E,4 | 
[V:1] A12- | 
[V:2] E6F2E4 | 
[V:3] A4z2A2c2c2 | 
[V:4] A,,8A,,4 | 
[V:1] A8z4 | 
[V:2] D4z2A2=B2=B3/A/ | 
[V:3] d3c/=B/A2A2G4 | 
[V:4] z2D,2F,2F,2G,3F,/E,/ | 
[V:1] z12 | 
[V:2] =Bc=B/A/=Bc3=B/A/G2E2 | 
[V:3] z2d2e3d/c/=B2=B2 | 
[V:4] D,3/C,/D,2C,4z2G,2 | 
[V:1] z12 | 
[V:2] F3E/D/C2z2z4 | 
[V:3] A2c3=B/A/Gc=BA2G | 
[V:4] A,3G,/F,/E,2E,2D,C,B,,2 | 
[V:1] z12 | 
[V:2] z12 | 
[V:3] Ac=BA2GFE/D/C2z2 | 
[V:4] A,,2D,2z2D,2E,2F,2 | 
[V:1] z12 | 
[V:2] z12 | 
[V:3] z2=B2c2d2e3d/c/ | 
[V:4] G,4F,3E,/D,/C,4 | 
[V:1] z12 | 
[V:2] z12 | 
[V:3] =BA2d2c/=B/c2=B2A2- | 
[V:4] D,4E,4D,4 | 
[V:1] z12 | 
[V:2] z12 | 
[V:3] A2c4G4A2- | 
[V:4] F,4C,4C,4 | 
[V:1] z12 | 
[V:2] z12 | 
[V:3] A2F4D4G2- | 
[V:4] D,4B,,4G,,4 | 
[V:1] z12 | 
[V:2] z12 | 
[V:3] GF/E/DECc2=Bce2c | 
[V:4] C,2B,,C,2E,D,2C,2C2 | 
[V:1] z12 | 
[V:2] z12 | 
[V:3] d2cAcd=B2A3G/F/ | 
[V:4] B,2A,3G,/F,/G,2A,2A,,2 | 
[V:1] z12 | 
[V:2] z12 | 
[V:3] G2A2=BA2c2=B2d- | 
[V:4] B,,2A,,2D,2C,2E,2D,3/E,/ | 
[V:1] z12 | 
[V:2] z4zfed3/e/f/g/ed | 
[V:3] d3c=BAz2z4 | 
[V:4] F,G,E,2D,2G,2F,2G,2 | 
[V:1] zGFE3/F/G/A/FE2A2^G | 
[V:2] z4G2A3/=B/cd=B2 | 
[V:3] z12 | 
[V:4] B,2A,2z4z4 | 
[V:1] A3/=B/cdB2A3G/F/G2 | 
[V:2] A3G/F/G2A2zA=Bc- | 
[V:3] z12 | 
[V:4] z12 | 
[V:1] A2E3/F/GFE2D2z2 | 
[V:2] c=B/A/GA=Bd2c=B2A2- | 
[V:3] z12 | 
[V:4] z12 | 
[V:1] C2F3FE2D3/C/=B,/A,/D- | 
[V:2] A2z2D2G3GF2 | 
[V:3] z12 | 
[V:4] z12 | 
[V:1] D^CD2z2A2=B2c2 | 
[V:2] E2D3EF2G2A3/=B/ | 
[V:3] z12 | 
[V:4] z12 | 
[V:1] A2d3c/=B/c2d2cA- | 
[V:2] cd2f2e/d/eAz4 | 
[V:3] z4z4=B2A3/=B/ | 
[V:4] z12 | 
[V:1] Ac=BA2GF2E4- | 
[V:2] z4z2D2A3G/F/ | 
[V:3] cAGcde2d2c/=B/c3/=B/ | 
[V:4] z4z4A,,4 | 
[V:1] E4E3D/E/FEDE | 
[V:2] ECE3/F/GAGc2A=Bc- | 
[V:3] G4zc2A2c=BA- | 
[V:4] C,4C,4z4 | 
[V:1] FE2DE2zG2ED2 | 
[V:2] ccA=Bc3/=B/G4G2 | 
[V:3] AGF2E4zc2=B | 
[V:4] zC,D,2C,3B,,/A,,/G,,4 | 
[V:1] CF2EF8 | 
[V:2] A2z2z2D4F2 | 
[V:3] cAG2d3c/=B/A2B2 | 
[V:4] z2C,2B,,3C,D,2B,,2 | 
[V:1] F2G2F2E3DD2- | 
[V:2] FAG/F/GA=Bc3=B/A/G2 | 
[V:3] A3/d3/cd2G2A2D2 | 
[V:4] D,2E,2D,2C,2A,,2B,,2 | 
[V:1] D2^C2D4z2G2 | 
[V:2] A4z2G2A2=B2 | 
[V:3] E4D2z2z4 | 
[V:4] A,,4A,2B,2C3/B,/G,2 | 
[V:1] A2=B2c3BA2G2 | 
[V:2] c2d2c3/=B/A2D2E2 | 
[V:3] z4z4z2G2 | 
[V:4] z2G,2A,2F,4E,2 | 
[V:1] F2D2E3FG2A2- | 
[V:2] F3E/F/G2g3ff2 | 
[V:3] A2=B2c8 | 
[V:4] D,4C,3D,E,2F,2 | 
[V:1] AG/F/G2A4A3G/F/ | 
[V:2] d2e2f3ed2d2- | 
[V:3] =B4A8 | 
[V:4] G,4D,8 | 
[V:1] E4D4A4 | 
[V:2] d^c/=B/^c2d4z2d2- | 
[V:3] z4A6GF | 
[V:4] A,4D,4F,4 | 
[V:1] G4F3GA2B2 | 
[V:2] d2c2d3ef2g2- | 
[V:3] E4D8- | 
[V:4] G,4A,4z4 | 
[V:1] A4G3A/=B/c4 | 
[V:2] gf/e/f2g2e3dc2 | 
[V:3] D4G6A2 | 
[V:4] z2D,2E,2C,3B,,A,,2 | 
[V:1] d2c2=B2A3GG2- | 
[V:2] =B2A2z2f2d2d2- | 
[V:3] =B2c2d4=B2G2 | 
[V:4] G,,2A,,2G,,2F,,2G,,4 | 
[V:1] G2^F2G3A=B2c2- | 
[V:2] dcd2=B2e2d2c2 | 
[V:3] A4G4z4 | 
[V:4] D,4E,3F,G,2C,2 | 
[V:1] c2=B2c4z2G2 | 
[V:2] d4c4d2e2- | 
[V:3] G4A4=B2c2- | 
[V:4] z4F,3E,D,2C,2 | 
[V:1] A3G/F/E2D3CC2- | 
[V:2] edc3=BA2B2G2- | 
[V:3] c=BA2G2F4E2 | 
[V:4] A,,3B,,C,2D,2B,,2C,2 | 
[V:1] C2=B,2C4D4- | 
[V:2] G2G2C2GA=B2G2 | 
[V:3] D4C4z2=B2 | 
[V:4] G,,4G,8- | 
[V:1] D4z4z2E2 | 
[V:2] z4G6c2- | 
[V:3] =B2d2c8 | 
[V:4] G,4C,8 | 
[V:1] E2G2F6ED | 
[V:2] c=Bc2d3c/=B/A3=B | 
[V:3] G4A4A4 | 
[V:4] E,4D,4-D,3C,/B,,/ | 
[V:1] C2F4D4G2- | 
[V:2] c2d2z2d3/c/BAG2- | 
[V:3] A4B8 | 
[V:4] A,,2D,3C,B,,A,,G,,4- | 
[V:1] GFEDC2c2=B2A2- | 
[V:2] G2G2E3FG2E2 | 
[V:3] B4A4d2c2 | 
[V:4] G,,4A,,4G,,2A,,2 | 
[V:1] A2G2F2E3DD2- | 
[V:2] z2e2d2e2A2G2 | 
[V:3] =B4A3GF2D2 | 
[V:4] E,4F,2C,2D,2B,,2 | 
[V:1] D2^C2D8 ||  
[V:2] A4A8 ||  
[V:3] E4D8 ||  
[V:4] A,,4D,8 ||  
[V:1]  [K:F] [K:clef=treble][M:3/1]z12 | 
[V:2]  [K:F] [K:clef=treble-8][M:3/1]d6d2d4 | 
[V:3]  [K:F] [K:clef=treble-8][M:3/1]z12 | 
[V:4]  [K:F] [K:clef=bass][M:3/1]z12 | 
[V:1] A6A2A4 | 
[V:2] f4f3e/d/c2d2 | 
[V:3] z12 | 
[V:4] z12 | 
[V:1] c4c3=B/A/G2A2 | 
[V:2] A4z2e3d/e/f2 | 
[V:3] z12 | 
[V:4] z12 | 
[V:1] G2c4=B3AA2- | 
[V:2] e2c2d4A2c2 | 
[V:3] z12 | 
[V:4] z12 | 
[V:1] A2G2F2E3D/C/D2 | 
[V:2] =B4A2zGAc2=B | 
[V:3] z12 | 
[V:4] z12 | 
[V:1] zCDF2ED2C2=B,2 | 
[V:2] A2GFG2zF3/G/A2G | 
[V:3] z12 | 
[V:4] z12 | 
[V:1] A,2A3/G//A//GFE2D4 | 
[V:2] Ac2A=Bd2^cd2f2- | 
[V:3] z12 | 
[V:4] z12 | 
[V:1] z2A2=B2c4A2 | 
[V:2] fed3c/=B/A3=Bc2 | 
[V:3] z12 | 
[V:4] z12 | 
[V:1] =B2c2d3cB2A2- | 
[V:2] d2e2d2G4d2 | 
[V:3] z12 | 
[V:4] z12 | 
[V:1] A2F2G3F/G/A2GE- | 
[V:2] c2d2=B2c3=B/A/=Bc | 
[V:3] z12 | 
[V:4] z12 | 
[V:1] EF2DEG2FED/C/D2 | 
[V:2] A2B2G2A2Gc2=B | 
[V:3] z12 | 
[V:4] z12 | 
[V:1] C2G3FF3E/D/E2 | 
[V:2] ce3/d/c/=B/c2A2G4 | 
[V:3] z12 | 
[V:4] z12 | 
[V:1] (3:2:8F4E2-E2D2=B,2C3DE2 | 
[V:2] F2A2G4A2c2 | 
[V:3] z12 | 
[V:4] z12 | 
[V:1] (3:2:10D3G2F/G/A4G2A2=B3A/B/ | 
[V:2] =B4A2c2z2d2 | 
[V:3] z12 | 
[V:4] z12 | 
[V:1] (3:2:11c3=B3A3G2E FE2AG3/F//G// | 
[V:2] c2def2e2AcB2 | 
[V:3] z12 | 
[V:4] z12 | 
[V:1] A2z2E2F2ECD2 | 
[V:2] (3:2:8A4A2A2z2A2F3GB2 | 
[V:3] z12 | 
[V:4] z12 | 
[V:1] CF2EF4z2G2 | 
[V:2] (3:2:8A2F2G2F2z2A2G2=B4 | 
[V:3] z12 | 
[V:4] z12 | 
[V:1] A2=B2c8 | 
[V:2] (3:2:10A2d4c3A2F E F EA2F | 
[V:3] z12 | 
[V:4] z12 | 
[V:1] =B4A3G/F/E2A2- | 
[V:2] (3:2:6G4D2-D2F4C4F2- | 
[V:3] z12 | 
[V:4] z12 | 
[V:1] A2G3^F/E/F2G4 | 
[V:2] (3:2:6F2c4=B2A4G4=B2 | 
[V:3] z12 | 
[V:4] z12 | 
[V:1] z2c2=B2d3cB2 | 
[V:2] (3:2:2c2A4G4z2d2- | 
[V:3] z12 | 
[V:4] z12 | 
[V:1] A2GA2GFG2FE2 | 
[V:2] dc=Bcded=Bcd2^c | 
[V:3] z12 | 
[V:4] z12 | 
[V:1] D2F2E2DE2C=B,2 | 
[V:2] d2zA2c=Bc3/=B/A2^G | 
[V:3] z12 | 
[V:4] z12 | 
[V:1] [M:2/1](3:2:5A,6=B,2C2B, C | 
[V:2] [M:2/1]A8 | 
[V:3] [M:2/1]z8 | 
[V:4] [M:2/1]z8 | 
[V:1] (3:2:7D3EF2G3F E D | 
[V:2] B8 | 
[V:3] z8 | 
[V:4] z8 | 
[V:1] (3:2:5C3DE2F4E2 | 
[V:2] A6G2 | 
[V:3] z8 | 
[V:4] z8 | 
[V:1] (3:2:5F2E3DD4^C2 | 
[V:2] (3:2:4A4F2G2E4 | 
[V:3] z8 | 
[V:4] z8 | 
[V:1] D8 ||  
[V:2] D8 ||  
[V:3] z8 ||  
[V:4] z8 ||  
[V:1]  [K:F] [K:clef=treble][M:2/1]z8 | 
[V:2]  [K:F] [K:clef=treble-8][M:2/1]z8 | 
[V:3]  [K:F] [K:clef=treble-8][M:2/1]A4A2c2- | 
[V:4]  [K:F] [K:clef=bass][M:2/1]z8 | 
[V:1] z8 | 
[V:2] z8 | 
[V:3] c2=BA=B2c2 | 
[V:4] z8 | 
[V:1] z8 | 
[V:2] z8 | 
[V:3] d2=B2A4 | 
[V:4] D,4D,2F,2- | 
[V:1] z8 | 
[V:2] z8 | 
[V:3] z2A2G2A2 | 
[V:4] F,2E,D,E,2F,2 | 
[V:1] z8 | 
[V:2] z8 | 
[V:3] =B2c4=B2 | 
[V:4] G,2E,2D,4 | 
[V:1] z8 | 
[V:2] z8 | 
[V:3] c2A4=B2 | 
[V:4] z2D,2C,2D,2 | 
[V:1] z8 | 
[V:2] z8 | 
[V:3] c2A2G4 | 
[V:4] E,2F,4E,2 | 
[V:1] z8 | 
[V:2] z8 | 
[V:3] A6A2 | 
[V:4] F,4z4 | 
[V:1] z8 | 
[V:2] z8 | 
[V:3] d3cB2AG | 
[V:4] D,6D,2 | 
[V:1] z8 | 
[V:2] z8 | 
[V:3] F4c4 | 
[V:4] A,6G,2 | 
[V:1] z8 | 
[V:2] z8 | 
[V:3] d4_e4- | 
[V:4] F,2E,D,C,4- | 
[V:1] z8 | 
[V:2] z8 | 
[V:3] e2dcB2A2 | 
[V:4] C,4D,4 | 
[V:1] z8 | 
[V:2] z8 | 
[V:3] GFG2A4 | 
[V:4] E,4F,4- | 
[V:1] z8 | 
[V:2] z8 | 
[V:3] D4z4 | 
[V:4] F,2G,2A,4 | 
[V:1] z8 | 
[V:2] z8 | 
[V:3] d6c2 | 
[V:4] B,6A,2 | 
[V:1] z8 | 
[V:2] z8 | 
[V:3] =B2A2G2c2- | 
[V:4] G,2F,2E,4 | 
[V:1] z8 | 
[V:2] z8 | 
[V:3] c=BAGF4 | 
[V:4] A,6G,F, | 
[V:1] z8 | 
[V:2] z8 | 
[V:3] z2E2F2G2 | 
[V:4] G,2C,2D,2B,,2 | 
[V:1] z8 | 
[V:2] z8 | 
[V:3] A2c4=B2- | 
[V:4] A,,4z2G,,2 | 
[V:1] z8 | 
[V:2] z8 | 
[V:3] BAA4G2 | 
[V:4] A,,2C,2B,,4 | 
[V:1] z8 | 
[V:2] z8 | 
[V:3] A4A3G | 
[V:4] A,,4z4 | 
[V:1] z8 | 
[V:2] z8 | 
[V:3] F3ED2C2 | 
[V:4] A,4A,3G, | 
[V:1] z8 | 
[V:2] z8 | 
[V:3] D2A2=B2c2 | 
[V:4] F,3E,D,2C,2 | 
[V:1] z8 | 
[V:2] z8 | 
[V:3] =BAd4^c2 | 
[V:4] D,2F,2E,4 | 
[V:1] z8 | 
[V:2] z8 | 
[V:3] d4z4 | 
[V:4] D,8 | 
[V:1] z8 | 
[V:2] z8 | 
[V:3] G6A2- | 
[V:4] z4C,4 | 
[V:1] z8 | 
[V:2] z8 | 
[V:3] A2=B4c2- | 
[V:4] D,4E,4 | 
[V:1] z8 | 
[V:2] z8 | 
[V:3] c=BAGA4 | 
[V:4] F,8- | 
[V:1] z8 | 
[V:2] z8 | 
[V:3] z2A4GF | 
[V:4] F,8 | 
[V:1] z8 | 
[V:2] z8 | 
[V:3] EDd4^c2 | 
[V:4] G,4E,4 | 
[V:1] z8 | 
[V:2] z8 | 
[V:3] d3cA2B2- | 
[V:4] D,4z2D,2- | 
[V:1] z8 | 
[V:2] z8 | 
[V:3] B2AG^F3E | 
[V:4] D,2C,B,,A,,4 | 
[V:1] z8 | 
[V:2] z8 | 
[V:3] G4z4 | 
[V:4] G,,4C,4 | 
[V:1] z8 | 
[V:2] z8 | 
[V:3] z2c4d2- | 
[V:4] E,4F,4 | 
[V:1] z8 | 
[V:2] z8 | 
[V:3] dc=BA=BAGF | 
[V:4] D,8 | 
[V:1] z8 | 
[V:2] z8 | 
[V:3] E3FGA=B2 | 
[V:4] C,6D,2 | 
[V:1] z8 | 
[V:2] z8 | 
[V:3] c2d4G2- | 
[V:4] E,2F,2G,4 | 
[V:1] z8 | 
[V:2] z8 | 
[V:3] G2c2=BA=B2 | 
[V:4] C,2E,2D,4 | 
[V:1] z8 | 
[V:2] z8 | 
[V:3] c8 | 
[V:4] C,8 | 
[V:1] z4G4- | 
[V:2] z4e4- | 
[V:3] z4c4- | 
[V:4] z4C,4- | 
[V:1] G4G4 | 
[V:2] e4e4 | 
[V:3] c4c4 | 
[V:4] C,4C,4 | 
[V:1] G8 | 
[V:2] e4e4 | 
[V:3] c6=BA | 
[V:4] C,8 | 
[V:1] G6FE | 
[V:2] e8 | 
[V:3] G6A2 | 
[V:4] C,8 | 
[V:1] D4G4 | 
[V:2] z4e4 | 
[V:3] =B4c4 | 
[V:4] G,4C,4 | 
[V:1] F6G2 | 
[V:2] d6c=B | 
[V:3] A4d4- | 
[V:4] D,6E,2 | 
[V:1] A4=B4 | 
[V:2] A4d4 | 
[V:3] d4d4 | 
[V:4] F,4G,4 | 
[V:1] c3=BAGA2- | 
[V:2] f2f4ed | 
[V:3] A4c4 | 
[V:4] F,4A,4 | 
[V:1] A2^G^FG4 | 
[V:2] e2dc=B2e2- | 
[V:3] =B8 | 
[V:4] E,8 | 
[V:1] A4F2G2 | 
[V:2] e2dcd2c2- | 
[V:3] A8 | 
[V:4] F,6E,2 | 
[V:1] F3E/D/E4 | 
[V:2] c2=B2c4- | 
[V:3] z8 | 
[V:4] D,4C,4 | 
[V:1] z4A4 | 
[V:2] c4c4 | 
[V:3] A6GF | 
[V:4] A,,6C,2- | 
[V:1] G4E4 | 
[V:2] c4=B2c2- | 
[V:3] E4G4 | 
[V:4] C,2B,,A,,G,,2C,2 | 
[V:1] F6ED | 
[V:2] c=BAGA4- | 
[V:3] F2A4GF | 
[V:4] F,,6G,,2 | 
[V:1] C6D2 | 
[V:2] A2G2F4 | 
[V:3] E4A4 | 
[V:4] A,,6B,,2 | 
[V:1] E4F4 | 
[V:2] E4A4 | 
[V:3] G4F3G | 
[V:4] C,4D,4 | 
[V:1] E4A4 | 
[V:2] A3GF2E2 | 
[V:3] A=Bc3=Bc2 | 
[V:4] A,,4z2A,,2 | 
[V:1] G2F4ED | 
[V:2] D6CD | 
[V:3] B2A4G2 | 
[V:4] B,,3C,B,,4 | 
[V:1] C8- | 
[V:2] E4F4 | 
[V:3] A8- | 
[V:4] A,,8- | 
[V:1] C8 ||  
[V:2] E8 ||  
[V:3] A8 ||  
[V:4] A,,8 ||  
[V:1]  [K:F] [K:clef=treble][M:2/1]F8 | 
[V:2]  [K:F] [K:clef=treble-8][M:2/1]A8 | 
[V:3]  [K:F] [K:clef=treble-8][M:2/1]d8 | 
[V:4]  [K:F] [K:clef=bass][M:2/1]D,8 | 
[V:1] F4F4- | 
[V:2] A4A4 | 
[V:3] d4d4- | 
[V:4] D,4D,4- | 
[V:1] F8 | 
[V:2] A4=B2A2- | 
[V:3] d4d4 | 
[V:4] D,4D,4 | 
[V:1] F4F4 | 
[V:2] A2d4c=B | 
[V:3] d4A2d2- | 
[V:4] D,4D,4 | 
[V:1] F6ED | 
[V:2] A2F3GAF | 
[V:3] d2c=BA2F2 | 
[V:4] D,8 | 
[V:1] E8 | 
[V:2] G4E2G2- | 
[V:3] c8 | 
[V:4] C,8 | 
[V:1] D8- | 
[V:2] G2FEF2G2 | 
[V:3] B4A2B2- | 
[V:4] G,4D,2G,2- | 
[V:1] D8 | 
[V:2] z4F4- | 
[V:3] B2AGA2B2 | 
[V:4] G,2F,E,D,2B,,2 | 
[V:1] C8 | 
[V:2] F4f4- | 
[V:3] A8 | 
[V:4] F,8 | 
[V:1] z4c4- | 
[V:2] f2edc2d2 | 
[V:3] A8 | 
[V:4] F,4F,4 | 
[V:1] c4c4 | 
[V:2] e8- | 
[V:3] G4c4 | 
[V:4] C,8- | 
[V:1] c4c4 | 
[V:2] e4c4 | 
[V:3] c3de2dc | 
[V:4] C,8 | 
[V:1] A6GF | 
[V:2] z4d4 | 
[V:3] d2c4=B2 | 
[V:4] F,4D,4 | 
[V:1] E2C2c4- | 
[V:2] e6d2 | 
[V:3] c4A4- | 
[V:4] C,6B,,2 | 
[V:1] c2=B2A4- | 
[V:2] c6=B2 | 
[V:3] A2GFE4 | 
[V:4] A,,6G,,2 | 
[V:1] A2G2F4- | 
[V:2] A4c4- | 
[V:3] F4A4 | 
[V:4] F,,8 | 
[V:1] F2EDE4 | 
[V:2] c4c4 | 
[V:3] G8 | 
[V:4] C,8 | 
[V:1] F6E2 | 
[V:2] A8 | 
[V:3] F4F4 | 
[V:4] D,6C,B,, | 
[V:1] D2C2D3E | 
[V:2] z4z2d2 | 
[V:3] G2A2GFG2 | 
[V:4] B,,3A,,B,,4 | 
[V:1] FGF4ED | 
[V:2] c2A2GFG2 | 
[V:3] A4D3E | 
[V:4] A,,4B,,4 | 
[V:1] C2D4^C2 | 
[V:2] A2B2A4- | 
[V:3] F2G2E4 | 
[V:4] A,,2G,,2A,,4 | 
[V:1] D8 | 
[V:2] A2G2F3E | 
[V:3] D8 | 
[V:4] z4A,4 | 
[V:1] z8 | 
[V:2] D2d4^c2 | 
[V:3] F4E4 | 
[V:4] A,4G,4 | 
[V:1] A4G2G2- | 
[V:2] d4z2=B2 | 
[V:3] D4G3A | 
[V:4] F,4E,4- | 
[V:1] G2FEF4 | 
[V:2] e4d4 | 
[V:3] =B2c2A4 | 
[V:4] E,2D,C,D,4 | 
[V:1] G4E4- | 
[V:2] =B4z2=B2 | 
[V:3] G4z4 | 
[V:4] E,4G,4 | 
[V:1] E2DCD4 | 
[V:2] c=BAGA4 | 
[V:3] z8 | 
[V:4] F,8 | 
[V:1] E4G4- | 
[V:2] =B6AG | 
[V:3] G6FE | 
[V:4] E,8- | 
[V:1] G2FEG3A | 
[V:2] =B2c2=B4 | 
[V:3] G2C2z2G2- | 
[V:4] E,8 | 
[V:1] =BcA4^G2 | 
[V:2] E8 | 
[V:3] GAc2=B4 | 
[V:4] z8 | 
[V:1] A4c4- | 
[V:2] e8- | 
[V:3] A6GF | 
[V:4] A,,8- | 
[V:1] c4A4 | 
[V:2] e4c4 | 
[V:3] E4F4 | 
[V:4] A,,4A,,4 | 
[V:1] G4G3F | 
[V:2] =B4e4- | 
[V:3] G3A=B2c2 | 
[V:4] E,8 | 
[V:1] G2A4^G2 | 
[V:2] e4e4 | 
[V:3] =BAc2=B4 | 
[V:4] E,4E,4 | 
[V:1] A4=B4 | 
[V:2] c2A2d4 | 
[V:3] A4z4 | 
[V:4] F,4G,4 | 
[V:1] c8- | 
[V:2] c3defe2- | 
[V:3] z8 | 
[V:4] A,8- | 
[V:1] c4=B4 | 
[V:2] e2dcd2=B2 | 
[V:3] z8 | 
[V:4] A,4G,4 | 
[V:1] A8 | 
[V:2] c2A4d2- | 
[V:3] z4F4 | 
[V:4] F,4D,4 | 
[V:1] G4E4 | 
[V:2] d2c=Bc=BAG | 
[V:3] G4G4 | 
[V:4] E,8 | 
[V:1] F4A4 | 
[V:2] F2D2F4 | 
[V:3] A6GF | 
[V:4] z8 | 
[V:1] =B4c4 | 
[V:2] E4A,4 | 
[V:3] G4E4 | 
[V:4] z8 | 
[V:1] d4=B2c2 | 
[V:2] A4z4 | 
[V:3] D2F2G2C2 | 
[V:4] D,4E,4 | 
[V:1] A4G4 | 
[V:2] z4E3F | 
[V:3] D4z4 | 
[V:4] F,4G,4- | 
[V:1] z8 | 
[V:2] GA=B3cd2 | 
[V:3] z8 | 
[V:4] G,8- | 
[V:1] z8 | 
[V:2] e2d2=B2e2- | 
[V:3] z8 | 
[V:4] G,4G,4 | 
[V:1] z8 | 
[V:2] e2dcd4 | 
[V:3] z8 | 
[V:4] F,8 | 
[V:1] G4G3F | 
[V:2] e3d/c/=B4 | 
[V:3] G4G3F | 
[V:4] E,4z2E,2 | 
[V:1] EDC2D4- | 
[V:2] c4z4 | 
[V:3] G2A2F2D2 | 
[V:4] C,2A,,2B,,4 | 
[V:1] D2C=B,C4 | 
[V:2] z4A4 | 
[V:3] E4F3E | 
[V:4] A,,8 | 
[V:1] D8 | 
[V:2] B6A2 | 
[V:3] G6A2 | 
[V:4] G,,8 | 
[V:1] z8 | 
[V:2] G8 | 
[V:3] B8 | 
[V:4] z4G,,4 | 
[V:1] z8 | 
[V:2] z8 | 
[V:3] z4G4 | 
[V:4] C,6B,,2 | 
[V:1] z8 | 
[V:2] z8 | 
[V:3] c6B2 | 
[V:4] A,,8 | 
[V:1] z8 | 
[V:2] z8 | 
[V:3] A4z2A2 | 
[V:4] z2A,,2D,3C, | 
[V:1] z8 | 
[V:2] z8 | 
[V:3] d3cB2A2 | 
[V:4] B,,3A,,G,,2D,2 | 
[V:1] z8 | 
[V:2] z4D4 | 
[V:3] G2B2A4 | 
[V:4] E,2G,4^F,2 | 
[V:1] z4D4 | 
[V:2] G6F2 | 
[V:3] B6G2 | 
[V:4] G,4z4 | 
[V:1] G6FE | 
[V:2] E4z2E2 | 
[V:3] G8 | 
[V:4] z8 | 
[V:1] E4z2F2 | 
[V:2] G3FE2D2 | 
[V:3] z8 | 
[V:4] z8 | 
[V:1] G3FE2D2 | 
[V:2] C4z4 | 
[V:3] z2E2G3F | 
[V:4] z8 | 
[V:1] C2F2E2C2- | 
[V:2] z8 | 
[V:3] E2D2C2E2 | 
[V:4] z8 | 
[V:1] C2=B,2C4 | 
[V:2] z4z2c2 | 
[V:3] D4CDEF | 
[V:4] z8 | 
[V:1] z4z2c2 | 
[V:2] =B2A4GF | 
[V:3] G2A2F4 | 
[V:4] z8 | 
[V:1] =B2A4GF | 
[V:2] G2F2A2=B2 | 
[V:3] z8 | 
[V:4] z4D,4 | 
[V:1] E4D2F2- | 
[V:2] c4z4 | 
[V:3] z2c2=B2A2- | 
[V:4] C,4D,4 | 
[V:1] F2EDC2D2 | 
[V:2] z8 | 
[V:3] A2GFE2D2 | 
[V:4] D,4A,,2B,,2- | 
[V:1] F3GE4 | 
[V:2] z2A2A3G/A/ | 
[V:3] d2d4^c2 | 
[V:4] B,,C,D,2A,,4 | 
[V:1] D4z4 | 
[V:2] =B4A2d2- | 
[V:3] d4z4 | 
[V:4] D,3E,F,2D,2 | 
[V:1] z2G4F2 | 
[V:2] d2c2d3c | 
[V:3] G4A4 | 
[V:4] E,4D,4 | 
[V:1] G4C3=B, | 
[V:2] =BAG4^F2 | 
[V:3] G4z2c2- | 
[V:4] G,,4A,,4 | 
[V:1] D4C4 | 
[V:2] G4A4 | 
[V:3] c2=B2c4 | 
[V:4] G,,4z2C,2- | 
[V:1] z2F4E2 | 
[V:2] z8 | 
[V:3] d4c4 | 
[V:4] C,2=B,,2C,4 | 
[V:1] F4G4 | 
[V:2] z2f4e2 | 
[V:3] z8 | 
[V:4] D,4C,4 | 
[V:1] A4z4 | 
[V:2] f4g4 | 
[V:3] z8 | 
[V:4] z2F,4E,2 | 
[V:1] z8 | 
[V:2] f2f4e2 | 
[V:3] z8 | 
[V:4] F,4G,4 | 
[V:1] z8 | 
[V:2] f2edc2d2 | 
[V:3] z8 | 
[V:4] F,6E,D, | 
[V:1] z8 | 
[V:2] e2c4=B2 | 
[V:3] z8 | 
[V:4] C,4D,4 | 
[V:1] z8 | 
[V:2] A2G2z4 | 
[V:3] z2E3D/E/F2 | 
[V:4] C,3B,,C,2D,2 | 
[V:1] z8 | 
[V:2] z8 | 
[V:3] E2A4G2 | 
[V:4] A,,2C,2B,,4 | 
[V:1] z8 | 
[V:2] z8 | 
[V:3] A4B2A2 | 
[V:4] A,,2D,4C,2 | 
[V:1] z8 | 
[V:2] z8 | 
[V:3] BAGFE2A2- | 
[V:4] D,4C,4 | 
[V:1] z8 | 
[V:2] z8 | 
[V:3] AGG4^F2 | 
[V:4] B,,2C,2A,,4 | 
[V:1] D4D4 | 
[V:2] =B4=B4 | 
[V:3] G8 | 
[V:4] G,,8 | 
[V:1] F4F4 | 
[V:2] A4d4 | 
[V:3] z8 | 
[V:4] z8 | 
[V:1] G4A4 | 
[V:2] =B2c4=BA | 
[V:3] z8 | 
[V:4] z8 | 
[V:1] =B4A2d2- | 
[V:2] G2d3ef2 | 
[V:3] z8 | 
[V:4] z8 | 
[V:1] d2c2=B2c2- | 
[V:2] e4d2e2- | 
[V:3] z8 | 
[V:4] z8 | 
[V:1] c=BA4G2 | 
[V:2] edc2=B4 | 
[V:3] z8 | 
[V:4] z8 | 
[V:1] F2E4C2 | 
[V:2] A4c3A | 
[V:3] z8 | 
[V:4] z8 | 
[V:1] D2F2E2F2 | 
[V:2] =B2A2G2A2 | 
[V:3] z8 | 
[V:4] z8 | 
[V:1] G2E2DCD2 | 
[V:2] E2G2F4 | 
[V:3] z8 | 
[V:4] z8 | 
[V:1] E4z4 | 
[V:2] E4z4 | 
[V:3] z8 | 
[V:4] z8 | 
[V:1] G8 | 
[V:2] e8 | 
[V:3] c8 | 
[V:4] C,8 | 
[V:1] A8 | 
[V:2] c4d4- | 
[V:3] A4A4- | 
[V:4] F,8 | 
[V:1] F8 | 
[V:2] d2c=BA2=B2 | 
[V:3] A2G2F4 | 
[V:4] D,8 | 
[V:1] E8 ||  
[V:2] c8 ||  
[V:3] G8 ||  
[V:4] C,8 ||  
[V:1]  [K:F] [K:clef=treble][M:3/1]G8G4 | 
[V:2]  [K:F] [K:clef=treble-8][M:3/1]e8e4 | 
[V:3]  [K:F] [K:clef=treble-8][M:3/1]c8c4 | 
[V:4]  [K:F] [K:clef=bass][M:3/1]C,8C,4 | 
[V:1] G4G4G4 | 
[V:2] e4e4e4 | 
[V:3] G4c4c4 | 
[V:4] C,4C,4C,4 | 
[V:1] G6A2=B4 | 
[V:2] d12 | 
[V:3] =B6c2d4- | 
[V:4] G,,12 | 
[V:1] A4d6c2 | 
[V:2] f8F4 | 
[V:3] d2c2d3cA4 | 
[V:4] D,12- | 
[V:1] A6=B2c4 | 
[V:2] F6EFG2A2 | 
[V:3] A4d4e4 | 
[V:4] D,8C,4 | 
[V:1] =B4A6G2 | 
[V:2] =B2G2d6=B2 | 
[V:3] d6c2=B4 | 
[V:4] G,4D,4E,4- | 
[V:1] G6^FEF4 | 
[V:2] c4d8 | 
[V:3] G4A8 | 
[V:4] E,4D,8 | 
[V:1] G12 | 
[V:2] =B6A2G4- | 
[V:3] G6A2=B4 | 
[V:4] z4G,4E,4 | 
[V:1] E4F4D4 | 
[V:2] G2A2F6E2 | 
[V:3] c4A4B4 | 
[V:4] C,4D,8 | 
[V:1] E12 | 
[V:2] G4E4e4- | 
[V:3] c8c4 | 
[V:4] C,4z4A,,4 | 
[V:1] z4z4E4 | 
[V:2] e4e4c4 | 
[V:3] G8A4 | 
[V:4] C,6B,,2A,,4 | 
[V:1] G6F2E2D2 | 
[V:2] d4D4G4 | 
[V:3] B8B4 | 
[V:4] G,,8G,,4 | 
[V:1] C8E4- | 
[V:2] E4F4E3F | 
[V:3] A8A4 | 
[V:4] A,,4F,,4C,4- | 
[V:1] E4G8 | 
[V:2] G12- | 
[V:3] G4E6F2 | 
[V:4] C,12 | 
[V:1] E6F2G4 | 
[V:2] G4c6=B2 | 
[V:3] G4A4G4 | 
[V:4] C,6D,2E,4 | 
[V:1] A6G2F4- | 
[V:2] A2G2A8 | 
[V:3] c6=B2A2G2 | 
[V:4] F,4C,4D,4- | 
[V:1] F2E2E6D2 | 
[V:2] d4c4B4 | 
[V:3] A8D4- | 
[V:4] D,2C,2A,,4B,,4- | 
[V:1] D6^C4=B,C | 
[V:2] G4A8 | 
[V:3] D4E8 | 
[V:4] B,,4A,,8 | 
[V:1] D12 |]  
[V:2] A12 |]  
[V:3] D12 |]  
[V:4] D,12 |]  



